X: 476
T: Syrtos
O: Greece
M: 7/8
L: 1/8
Q: 1/4=120
K: Gm
%%MIDI program 40 violin
%%MIDI drum d3d2d2 35 37 37
  z3 z2(3edc  |:\
%%MIDI drumon
  B2A G2(3FGA |B2cd2(3edc    |\
  B2c B2 (3GAF|[1G3-G2 (3edc :|[2G3-G2z2|
|:G3c2-cd     |d3-de dc      |\
  B2c B2 (3AGA|B7            |\
  zGB-BGG2-   |G3-G2z2::
  c3 c2 c2    |d3 d3c        |\
  B2A G3F     |[1d3cB4       :|[2G2F G4 |



